assets/illustrations/screens/Screen-control-panel.svg

<svg width="488" height="328" viewBox="0 0 488 328" fill="none" xmlns="http://www.w3.org/2000/svg">
<path d="M32 40C32 31.1634 39.1634 24 48 24H448C456.837 24 464 31.1634 464 40V56H32V40Z" fill="#1A2437"/>
<rect x="48" y="34" width="56" height="12" rx="6" fill="#8CA0B3"/>
<rect x="112" y="37" width="24" height="6" rx="3" fill="#B9CBD3"/>
<rect x="144" y="37" width="32" height="6" rx="3" fill="#B9CBD3"/>
<path d="M259.53 47.7942V35.6785C259.53 35.5498 259.629 35.4727 259.729 35.4727H262.11C262.209 35.4727 262.284 35.5498 262.308 35.627L262.457 36.373C263.077 35.627 263.97 35.2669 265.087 35.2669C267.294 35.2669 268.956 36.7331 268.956 39.9743C268.956 43.2154 267.319 44.7074 265.087 44.7074C263.995 44.7074 263.077 44.3473 262.457 43.5756V47.7685C262.457 47.8971 262.358 47.9743 262.259 47.9743H259.704C259.605 48 259.53 47.9228 259.53 47.7942ZM262.482 40.7717C262.482 40.8489 262.482 40.926 262.507 41.0032C262.78 41.955 263.4 42.3666 264.169 42.3666C265.211 42.3666 265.93 41.672 265.93 40C265.93 38.328 265.211 37.6334 264.169 37.6334C263.35 37.6334 262.73 38.045 262.507 38.9968C262.482 39.074 262.482 39.1254 262.482 39.2026V40.7717Z" fill="white"/>
<path d="M242.241 32H244.796C244.92 32 244.995 32.1029 244.995 32.2058V36.3987C245.615 35.6527 246.533 35.2669 247.624 35.2669C249.856 35.2669 251.494 36.7588 251.494 40C251.494 43.2412 249.832 44.7074 247.624 44.7074C246.508 44.7074 245.615 44.3473 244.995 43.6013L244.846 44.3473C244.821 44.4502 244.747 44.5016 244.647 44.5016H242.266C242.142 44.5016 242.068 44.3987 242.068 44.2958V32.2058C242.043 32.0772 242.117 32 242.241 32ZM244.995 40.8232C244.995 40.9003 244.995 40.9518 245.02 41.0289C245.243 41.9807 245.863 42.3923 246.681 42.3923C247.723 42.3923 248.443 41.6977 248.443 40.0257C248.443 38.3537 247.723 37.6592 246.681 37.6592C245.912 37.6592 245.292 38.0707 245.02 39.0225C244.995 39.0997 244.995 39.1768 244.995 39.254V40.8232Z" fill="white"/>
<path d="M252.188 32H254.743C254.867 32 254.942 32.1029 254.942 32.2058V44.3215C254.942 44.4502 254.842 44.5273 254.743 44.5273H252.188C252.064 44.5273 251.99 44.4244 251.99 44.3215V32.2058C251.99 32.0772 252.064 32 252.188 32Z" fill="white"/>
<path d="M255.76 34.1093V32.2058C255.76 32.0772 255.859 32 255.958 32H258.513C258.637 32 258.712 32.1029 258.712 32.2058V34.1093C258.712 34.2379 258.613 34.3151 258.513 34.3151H255.958C255.834 34.3151 255.76 34.2122 255.76 34.1093ZM255.958 35.4727H258.513C258.637 35.4727 258.712 35.5756 258.712 35.6785V44.3215C258.712 44.4502 258.613 44.5273 258.513 44.5273H255.958C255.834 44.5273 255.76 44.4244 255.76 44.3215V35.6785C255.76 35.5498 255.834 35.4727 255.958 35.4727Z" fill="white"/>
<path d="M233.535 32C231.923 32 230.261 32.2572 229.12 33.0032C227.284 34.1865 226.738 36.5016 226.788 38.6109C226.838 40.4373 227.309 42.418 228.574 43.7814C229.765 45.0675 232.245 45.6592 233.932 45.6592C234.006 45.6592 234.081 45.7106 234.081 45.8135V47.6656C234.081 47.8457 234.229 48 234.403 48H234.428C234.502 48 234.552 47.9743 234.601 47.9228C235.445 47.1769 236.288 46.4051 237.132 45.6077C237.925 44.8617 238.818 44.0643 239.414 43.164C240.703 41.2605 240.902 38.5338 240.48 36.2958C240.059 34.135 238.595 32.7203 236.536 32.283C235.668 32.1286 234.601 32 233.535 32Z" fill="#80E3EB"/>
<path d="M32 56H464V264C464 272.837 456.837 280 448 280H48C39.1634 280 32 272.837 32 264V56Z" fill="#F3F6FA"/>
<rect width="432" height="32" transform="translate(32 56)" fill="white"/>
<rect x="48" y="68" width="88" height="8" rx="4" fill="#B9CBD3"/>
<rect x="176" y="104" width="88" height="6" rx="3" fill="#B9CBD3"/>
<rect x="176" y="118" width="128" height="50" rx="8" fill="white"/>
<rect x="188" y="130" width="24" height="24" rx="4" fill="#E8F2FF"/>
<rect x="220" y="130" width="72" height="6" rx="3" fill="#8CA0B3"/>
<rect x="220" y="140" width="32" height="6" rx="3" fill="#D2DFE6"/>
<rect x="220" y="150" width="40" height="6" rx="3" fill="#D2DFE6"/>
<rect x="176" y="192" width="48" height="6" rx="3" fill="#B9CBD3"/>
<rect x="176" y="206" width="128" height="50" rx="8" fill="white"/>
<rect x="188" y="218" width="24" height="24" rx="4" fill="#E8F2FF"/>
<rect x="220" y="218" width="56" height="6" rx="3" fill="#8CA0B3"/>
<rect x="220" y="228" width="72" height="6" rx="3" fill="#D2DFE6"/>
<rect x="220" y="238" width="40" height="6" rx="3" fill="#D2DFE6"/>
<rect x="312" y="206" width="128" height="50" rx="8" fill="white"/>
<rect x="324" y="218" width="24" height="24" rx="4" fill="#E8F2FF"/>
<rect x="356" y="218" width="64" height="6" rx="3" fill="#8CA0B3"/>
<rect x="356" y="228" width="56" height="6" rx="3" fill="#D2DFE6"/>
<rect x="356" y="238" width="72" height="6" rx="3" fill="#D2DFE6"/>
<g filter="url(#filter0_d_12035_6909)">
<rect x="8" y="94" width="144" height="210" rx="12" fill="white"/>
<rect x="24" y="110" width="48" height="48" rx="24" fill="#00C6D7"/>
<path d="M58.3201 126.64H54.3201C54.3201 126.031 54.2001 125.427 53.9669 124.864C53.7337 124.301 53.3919 123.79 52.9611 123.359C52.5302 122.928 52.0187 122.586 51.4557 122.353C50.8928 122.12 50.2894 122 49.6801 122H46.3601C45.1295 122 43.9493 122.489 43.0791 123.359C42.2089 124.229 41.7201 125.409 41.7201 126.64H37.7201C37.321 126.635 36.9249 126.709 36.5546 126.858C36.1844 127.007 35.8475 127.228 35.5634 127.508C35.2794 127.789 35.0538 128.123 34.8999 128.491C34.746 128.859 34.6667 129.254 34.6667 129.653V142.88C34.6667 143.679 34.9842 144.446 35.5493 145.011C36.1144 145.576 36.8809 145.893 37.6801 145.893H58.3201C59.1193 145.893 59.8857 145.576 60.4508 145.011C61.0159 144.446 61.3334 143.679 61.3334 142.88V129.653C61.3334 128.854 61.0159 128.088 60.4508 127.523C59.8857 126.957 59.1193 126.64 58.3201 126.64ZM43.7201 126.64C43.7201 125.933 44.001 125.254 44.5011 124.754C45.0012 124.254 45.6795 123.973 46.3867 123.973H49.6667C50.374 123.973 51.0523 124.254 51.5524 124.754C52.0525 125.254 52.3334 125.933 52.3334 126.64H43.7067H43.7201ZM37.6801 128.64H58.3201C58.5888 128.64 58.8466 128.747 59.0366 128.937C59.2267 129.127 59.3334 129.385 59.3334 129.653V133.88L53.0534 135.973C49.744 137.054 46.1867 137.119 42.8401 136.16L36.6667 134.347V129.653C36.6667 129.385 36.7735 129.127 36.9635 128.937C37.1536 128.747 37.4113 128.64 37.6801 128.64ZM58.3201 143.893H37.6801C37.4113 143.893 37.1536 143.787 36.9635 143.597C36.7735 143.406 36.6667 143.149 36.6667 142.88V136.427L42.2934 138.04C44.027 138.541 45.8222 138.797 47.6267 138.8C49.6737 138.8 51.7079 138.476 53.6534 137.84L59.3334 135.973V142.867C59.3352 143.001 59.3103 143.134 59.2601 143.259C59.21 143.383 59.1356 143.496 59.0414 143.592C58.9471 143.687 58.8348 143.763 58.711 143.815C58.5872 143.867 58.4543 143.893 58.3201 143.893Z" fill="white"/>
<rect x="24" y="174" width="112" height="8" rx="4" fill="#8CA0B3"/>
<rect x="24" y="198" width="72" height="6" rx="3" fill="#B9CBD3"/>
<rect x="24" y="208" width="56" height="6" rx="3" fill="#D2DFE6"/>
<rect x="24" y="230" width="48" height="6" rx="3" fill="#B9CBD3"/>
<rect x="24" y="240" width="56" height="6" rx="3" fill="#D2DFE6"/>
<rect x="24" y="262" width="80" height="6" rx="3" fill="#B9CBD3"/>
<rect x="24" y="272" width="32" height="6" rx="3" fill="#D2DFE6"/>
<rect x="24" y="282" width="48" height="6" rx="3" fill="#D2DFE6"/>
</g>
<defs>
<filter id="filter0_d_12035_6909" x="0" y="86" width="176" height="242" filterUnits="userSpaceOnUse" color-interpolation-filters="sRGB">
<feFlood flood-opacity="0" result="BackgroundImageFix"/>
<feColorMatrix in="SourceAlpha" type="matrix" values="0 0 0 0 0 0 0 0 0 0 0 0 0 0 0 0 0 0 127 0" result="hardAlpha"/>
<feOffset dx="8" dy="8"/>
<feGaussianBlur stdDeviation="8"/>
<feColorMatrix type="matrix" values="0 0 0 0 0.536667 0 0 0 0 0.584274 0 0 0 0 0.670833 0 0 0 0.25 0"/>
<feBlend mode="normal" in2="BackgroundImageFix" result="effect1_dropShadow_12035_6909"/>
<feBlend mode="normal" in="SourceGraphic" in2="effect1_dropShadow_12035_6909" result="shape"/>
</filter>
</defs>
</svg>

<svg width="488" height="328" fill="none" xmlns="http://www.w3.org/2000/svg"><path d="M32 40c0-8.837 7.163-16 16-16h400c8.837 0 16 7.163 16 16v16H32V40Z" fill="#1A2437"/><rect x="48" y="34" width="56" height="12" rx="6" fill="#8CA0B3"/><rect x="112" y="37" width="24" height="6" rx="3" fill="#B9CBD3"/><rect x="144" y="37" width="32" height="6" rx="3" fill="#B9CBD3"/><path d="M259.53 47.794V35.68a.2.2 0 0 1 .199-.206h2.381c.099 0 .174.077.198.154l.149.746c.62-.746 1.513-1.106 2.63-1.106 2.207 0 3.869 1.466 3.869 4.707 0 3.241-1.637 4.733-3.869 4.733-1.092 0-2.01-.36-2.63-1.131v4.193a.199.199 0 0 1-.198.205h-2.555c-.099.026-.174-.051-.174-.18Zm2.952-7.022c0 .077 0 .154.025.231.273.952.893 1.364 1.662 1.364 1.042 0 1.761-.695 1.761-2.367 0-1.672-.719-2.367-1.761-2.367-.819 0-1.439.412-1.662 1.364-.025.077-.025.128-.025.206v1.569ZM242.241 32h2.555c.124 0 .199.103.199.206v4.193c.62-.746 1.538-1.132 2.629-1.132 2.232 0 3.87 1.492 3.87 4.733 0 3.241-1.662 4.707-3.87 4.707-1.116 0-2.009-.36-2.629-1.106l-.149.746c-.025.103-.099.155-.199.155h-2.381c-.124 0-.198-.103-.198-.206v-12.09c-.025-.129.049-.206.173-.206Zm2.754 8.823c0 .077 0 .129.025.206.223.952.843 1.363 1.661 1.363 1.042 0 1.762-.694 1.762-2.366 0-1.672-.72-2.367-1.762-2.367-.769 0-1.389.412-1.661 1.364-.025.077-.025.154-.025.231v1.57ZM252.188 32h2.555c.124 0 .199.103.199.206V44.32a.2.2 0 0 1-.199.206h-2.555c-.124 0-.198-.103-.198-.206V32.206c0-.129.074-.206.198-.206Zm3.572 2.11v-1.904c0-.129.099-.206.198-.206h2.555c.124 0 .199.103.199.206v1.903a.2.2 0 0 1-.199.206h-2.555c-.124 0-.198-.103-.198-.206Zm.198 1.363h2.555c.124 0 .199.103.199.206v8.642a.2.2 0 0 1-.199.206h-2.555c-.124 0-.198-.103-.198-.206V35.68c0-.13.074-.206.198-.206Z" fill="#fff"/><path d="M233.535 32c-1.612 0-3.274.257-4.415 1.003-1.836 1.184-2.382 3.499-2.332 5.608.05 1.826.521 3.807 1.786 5.17 1.191 1.287 3.671 1.878 5.358 1.878.074 0 .149.052.149.154v1.853c0 .18.148.334.322.334h.025a.22.22 0 0 0 .173-.077c.844-.746 1.687-1.518 2.531-2.315.793-.746 1.686-1.544 2.282-2.444 1.289-1.904 1.488-4.63 1.066-6.868-.421-2.161-1.885-3.576-3.944-4.013a17.573 17.573 0 0 0-3.001-.283Z" fill="#80E3EB"/><path d="M32 56h432v208c0 8.837-7.163 16-16 16H48c-8.837 0-16-7.163-16-16V56Z" fill="#F3F6FA"/><path fill="#fff" d="M32 56h432v32H32z"/><rect x="48" y="68" width="88" height="8" rx="4" fill="#B9CBD3"/><rect x="176" y="104" width="88" height="6" rx="3" fill="#B9CBD3"/><rect x="176" y="118" width="128" height="50" rx="8" fill="#fff"/><rect x="188" y="130" width="24" height="24" rx="4" fill="#E8F2FF"/><rect x="220" y="130" width="72" height="6" rx="3" fill="#8CA0B3"/><rect x="220" y="140" width="32" height="6" rx="3" fill="#D2DFE6"/><rect x="220" y="150" width="40" height="6" rx="3" fill="#D2DFE6"/><rect x="176" y="192" width="48" height="6" rx="3" fill="#B9CBD3"/><rect x="176" y="206" width="128" height="50" rx="8" fill="#fff"/><rect x="188" y="218" width="24" height="24" rx="4" fill="#E8F2FF"/><rect x="220" y="218" width="56" height="6" rx="3" fill="#8CA0B3"/><rect x="220" y="228" width="72" height="6" rx="3" fill="#D2DFE6"/><rect x="220" y="238" width="40" height="6" rx="3" fill="#D2DFE6"/><rect x="312" y="206" width="128" height="50" rx="8" fill="#fff"/><rect x="324" y="218" width="24" height="24" rx="4" fill="#E8F2FF"/><rect x="356" y="218" width="64" height="6" rx="3" fill="#8CA0B3"/><rect x="356" y="228" width="56" height="6" rx="3" fill="#D2DFE6"/><rect x="356" y="238" width="72" height="6" rx="3" fill="#D2DFE6"/><g filter="url(#screen-control-panel__a)"><rect x="8" y="94" width="144" height="210" rx="12" fill="#fff"/><rect x="24" y="110" width="48" height="48" rx="24" fill="#00C6D7"/><path d="M58.32 126.64h-4a4.643 4.643 0 0 0-2.864-4.287A4.643 4.643 0 0 0 49.68 122h-3.32a4.64 4.64 0 0 0-4.64 4.64h-4a3.02 3.02 0 0 0-2.157.868 3.025 3.025 0 0 0-.896 2.145v13.227a3.014 3.014 0 0 0 3.013 3.013h20.64a3.013 3.013 0 0 0 3.013-3.013v-13.227a3.012 3.012 0 0 0-3.013-3.013Zm-14.6 0a2.668 2.668 0 0 1 2.667-2.667h3.28a2.667 2.667 0 0 1 2.666 2.667h-8.626.013Zm-6.04 2h20.64a1.014 1.014 0 0 1 1.013 1.013v4.227l-6.28 2.093a17.43 17.43 0 0 1-10.213.187l-6.173-1.813v-4.694a1.013 1.013 0 0 1 1.013-1.013Zm20.64 15.253H37.68a1.013 1.013 0 0 1-1.013-1.013v-6.453l5.626 1.613c1.734.501 3.53.757 5.334.76 2.047 0 4.08-.324 6.026-.96l5.68-1.867v6.894a1.015 1.015 0 0 1-1.013 1.026Z" fill="#fff"/><rect x="24" y="174" width="112" height="8" rx="4" fill="#8CA0B3"/><rect x="24" y="198" width="72" height="6" rx="3" fill="#B9CBD3"/><rect x="24" y="208" width="56" height="6" rx="3" fill="#D2DFE6"/><rect x="24" y="230" width="48" height="6" rx="3" fill="#B9CBD3"/><rect x="24" y="240" width="56" height="6" rx="3" fill="#D2DFE6"/><rect x="24" y="262" width="80" height="6" rx="3" fill="#B9CBD3"/><rect x="24" y="272" width="32" height="6" rx="3" fill="#D2DFE6"/><rect x="24" y="282" width="48" height="6" rx="3" fill="#D2DFE6"/></g><defs><filter id="screen-control-panel__a" x="0" y="86" width="176" height="242" filterUnits="userSpaceOnUse" color-interpolation-filters="sRGB"><feFlood flood-opacity="0" result="BackgroundImageFix"/><feColorMatrix in="SourceAlpha" values="0 0 0 0 0 0 0 0 0 0 0 0 0 0 0 0 0 0 127 0" result="hardAlpha"/><feOffset dx="8" dy="8"/><feGaussianBlur stdDeviation="8"/><feColorMatrix values="0 0 0 0 0.536667 0 0 0 0 0.584274 0 0 0 0 0.670833 0 0 0 0.25 0"/><feBlend in2="BackgroundImageFix" result="effect1_dropShadow_12035_6909"/><feBlend in="SourceGraphic" in2="effect1_dropShadow_12035_6909" result="shape"/></filter></defs></svg>
